src/16/actions/show-node-handles.svg

<svg xmlns="http://www.w3.org/2000/svg" width="16" height="16" viewBox="0 0 16 16">
 <defs>
  <style id="current-color-scheme" type="text/css">
   .ColorScheme-Text { color:#565656; } .ColorScheme-Highlight { color:#5294e2; }
  </style>
 </defs>
 <path style="fill:currentColor" class="ColorScheme-Text" d="M 4.5078125 2 A 1.5049 1.5 0 0 0 3.0039062 3.5 A 1.5049 1.5 0 0 0 3.9628906 4.8964844 L 3.9628906 9 L 2 9 L 2 14 L 7.015625 14 L 7.015625 9 L 5.7460938 9 C 6.1771338 7.7569 7.0829813 6.5785563 8.2382812 5.5976562 C 9.8605813 4.2202563 11.937453 3.2551375 13.564453 3.0234375 A 0.50168 0.50005 0 0 0 13.458984 2.0292969 A 0.50168 0.50005 0 0 0 13.423828 2.0351562 C 11.539028 2.3035363 9.3516906 3.3382375 7.5878906 4.8359375 C 6.4685906 5.7862775 5.5163969 6.9348375 4.9667969 8.2109375 L 4.9667969 4.9257812 A 1.5049 1.5 0 0 0 6.0136719 3.5 A 1.5049 1.5 0 0 0 4.5078125 2 z"/>
</svg>

<svg xmlns="http://www.w3.org/2000/svg" width="16" height="16"><defs><style id="current-color-scheme" type="text/css"></style></defs><path d="M4.508 2a1.505 1.5 0 0 0-1.504 1.5 1.505 1.5 0 0 0 .959 1.396V9H2v5h5.016V9h-1.27c.431-1.243 1.337-2.421 2.492-3.402 1.623-1.378 3.7-2.343 5.326-2.575a.502.5 0 0 0-.105-.994.502.5 0 0 0-.035.006c-1.885.269-4.072 1.303-5.836 2.8-1.12.951-2.072 2.1-2.621 3.376V4.926A1.505 1.5 0 0 0 6.014 3.5 1.505 1.5 0 0 0 4.508 2z" fill="currentColor" color="#565656"/></svg>
